public/assets/img/svg/embed/plus.svg

<svg width="75" height="75" viewBox="0 0 75 75" xmlns="http://www.w3.org/2000/svg" xmlns:sketch="http://www.bohemiancoding.com/sketch/ns"><title>+</title><desc>Created with Sketch.</desc><path d="M45.288 29.452v-29.452h-15.836v29.452h-29.452v15.836h29.452v29.452h15.836v-29.452h29.452v-15.836h-29.452z" sketch:type="MSShapeGroup" fill="#EFEFF4"/></svg>

<svg width="75" height="75" viewBox="0 0 75 75" xmlns="http://www.w3.org/2000/svg"><title>+</title><path d="M45.288 29.452V0H29.452v29.452H0v15.836h29.452V74.74h15.836V45.288H74.74V29.452H45.288z" fill="#EFEFF4"/></svg>
